src/browser/themes/shared/zen-icons/nucleo/persistent-storage-fill.svg

#filter dumbComments emptyLines substitution
# This Source Code Form is subject to the terms of the Mozilla Public
# License, v. 2.0. If a copy of the MPL was not distributed with this
# file, You can obtain one at http://mozilla.org/MPL/2.0/.
<svg xmlns="http://www.w3.org/2000/svg" height="18" width="18" viewBox="0 0 18 18"><g fill="context-fill" fill-opacity="context-fill-opacity" class="nc-icon-wrapper"><path d="M16.871,10.502l-2.204-6.621c-.375-1.125-1.423-1.881-2.609-1.881H5.942c-1.186,0-2.235,.756-2.609,1.881L1.129,10.502s-.129,.439-.129,.748v2c0,1.241,1.009,2.25,2.25,2.25H14.75c1.241,0,2.25-1.009,2.25-2.25v-2c0-.385-.129-.748-.129-.748Zm-1.371,2.748c0,.414-.336,.75-.75,.75H3.25c-.414,0-.75-.336-.75-.75v-2c0-.414,.336-.75,.75-.75H14.75c.414,0,.75,.336,.75,.75v2Z"></path><path d="M7,11.5h-2.75c-.414,0-.75,.336-.75,.75s.336,.75,.75,.75h2.75c.414,0,.75-.336,.75-.75s-.336-.75-.75-.75Z" data-color="color-2"></path></g></svg>

#filter dumbComments emptyLines substitution
# This Source Code Form is subject to the terms of the Mozilla Public
# License, v. 2.0. If a copy of the MPL was not distributed with this
# file, You can obtain one at http://mozilla.org/MPL/2.0/.
<svg xmlns="http://www.w3.org/2000/svg" width="18" height="18" fill="context-fill" fill-opacity="context-fill-opacity" viewBox="0 0 18 18"><path d="m16.871 10.502-2.204-6.621A2.75 2.75 0 0 0 12.058 2H5.942a2.75 2.75 0 0 0-2.609 1.881l-2.204 6.621S1 10.941 1 11.25v2a2.25 2.25 0 0 0 2.25 2.25h11.5A2.25 2.25 0 0 0 17 13.25v-2c0-.385-.129-.748-.129-.748M15.5 13.25a.75.75 0 0 1-.75.75H3.25a.75.75 0 0 1-.75-.75v-2a.75.75 0 0 1 .75-.75h11.5a.75.75 0 0 1 .75.75z"/><path d="M7 11.5H4.25a.75.75 0 0 0 0 1.5H7a.75.75 0 0 0 0-1.5"/></svg>
